src/lib/packages/icons/src/assets/filled/book-open-text.svg

<svg width="24" height="24" viewBox="0 0 24 24" fill="none" xmlns="http://www.w3.org/2000/svg">
<path d="M11.1899 5.66599C11.2289 5.71999 11.25 5.78698 11.25 5.85398V19.0479C11.25 19.2729 11.013 19.4089 10.812 19.3089C8.42701 18.1189 6.03393 18.122 3.64893 18.801C3.31893 18.891 2.99902 18.661 2.99902 18.331V5.32102C2.99902 5.12802 3.10994 4.94601 3.28394 4.86301C4.92594 4.08101 6.667 3.85993 8.479 4.07993C9.604 4.21593 10.5669 4.81099 11.1899 5.66599ZM21 5.31992V18.3299C21 18.6599 20.6801 18.89 20.3501 18.8C17.9661 18.121 15.573 18.118 13.187 19.308C12.986 19.408 12.749 19.272 12.749 19.047V5.853C12.749 5.786 12.7701 5.71901 12.8091 5.66501C13.4321 4.81001 14.396 4.21495 15.519 4.07895C17.331 3.85895 19.0731 4.07903 20.7141 4.86203C20.8891 4.94503 21 5.12692 21 5.31992ZM17.75 12C17.75 11.586 17.414 11.25 17 11.25H15C14.586 11.25 14.25 11.586 14.25 12C14.25 12.414 14.586 12.75 15 12.75H17C17.414 12.75 17.75 12.414 17.75 12ZM18.75 8.99997C18.75 8.58597 18.414 8.24997 18 8.24997H15C14.586 8.24997 14.25 8.58597 14.25 8.99997C14.25 9.41397 14.586 9.74997 15 9.74997H18C18.414 9.74997 18.75 9.41397 18.75 8.99997Z" fill="currentColor"/>
</svg>

<svg xmlns="http://www.w3.org/2000/svg" width="24" height="24" fill="none"><path fill="currentColor" d="M11.19 5.666c.039.054.06.121.06.188v13.194c0 .225-.237.36-.438.26-2.385-1.19-4.778-1.186-7.163-.507-.33.09-.65-.14-.65-.47V5.321a.51.51 0 0 1 .285-.458c1.642-.782 3.383-1.003 5.195-.783a3.925 3.925 0 0 1 2.71 1.586ZM21 5.32v13.01c0 .33-.32.56-.65.47-2.384-.679-4.777-.682-7.163.508-.201.1-.438-.036-.438-.261V5.853c0-.067.021-.134.06-.188a3.927 3.927 0 0 1 2.71-1.586c1.812-.22 3.554 0 5.195.783A.509.509 0 0 1 21 5.32ZM17.75 12a.75.75 0 0 0-.75-.75h-2a.75.75 0 0 0 0 1.5h2a.75.75 0 0 0 .75-.75Zm1-3a.75.75 0 0 0-.75-.75h-3a.75.75 0 0 0 0 1.5h3a.75.75 0 0 0 .75-.75Z"/></svg>
